X:101
T:A new Strathspey Reel
B:CPC v3, p23
N:David Greenberg says this is impossible on the fiddle - must be for flute
N:final beats of each part fixed to match the anacruses
M:C
L:1/8
Q:1/4=92 "Slow"
K:E Minor
g |  B<B TB>A     G<g  B>g|  a>AB>G  E<e   e>f|g>ab<a  (g<e)g>e   |d>A B>G E<e [1e  :|[2e3/||
f/|  g>ab>a       g<b  b>g|  a>gb>g Ta>g   e2 |d>bg>b   e<g    B2 |d>A B>G E<e [1e3/:|[2e  ||
g |(TB>G)(TA>G) (TB>G) A<g|(TB>G)A>B E<e   e>f|g>bTa>g Te>d    B<g|d>A B>G E<e [1e  :|[2e3/||
f/|  g>G b>G      a>G  b>G|  a>Gb>g (Ta>g) e2 |d>bb>a  (g/e/d) B2 |d>A B>G E<e [1e3/:|[2e  |]

